fs/barcode_scanner_20_filled.svg

<svg viewBox="0 0 20 20" fill="none" xmlns="http://www.w3.org/2000/svg" height="1em" width="1em">
  <path d="M2 5.75C2 4.23122 3.23122 3 4.75 3H5.5C5.91421 3 6.25 3.33579 6.25 3.75C6.25 4.16421 5.91421 4.5 5.5 4.5H4.75C4.05964 4.5 3.5 5.05964 3.5 5.75V6.5C3.5 6.91421 3.16421 7.25 2.75 7.25C2.33579 7.25 2 6.91421 2 6.5V5.75ZM13.75 3.75C13.75 3.33579 14.0858 3 14.5 3H15.25C16.7688 3 18 4.23122 18 5.75V6.5C18 6.91421 17.6642 7.25 17.25 7.25C16.8358 7.25 16.5 6.91421 16.5 6.5V5.75C16.5 5.05964 15.9404 4.5 15.25 4.5H14.5C14.0858 4.5 13.75 4.16421 13.75 3.75ZM2.75 12.75C3.16421 12.75 3.5 13.0858 3.5 13.5V14.25C3.5 14.9404 4.05964 15.5 4.75 15.5H5.5C5.91421 15.5 6.25 15.8358 6.25 16.25C6.25 16.6642 5.91421 17 5.5 17H4.75C3.23122 17 2 15.7688 2 14.25V13.5C2 13.0858 2.33579 12.75 2.75 12.75ZM17.25 12.75C17.6642 12.75 18 13.0858 18 13.5V14.25C18 15.7688 16.7688 17 15.25 17H14.5C14.0858 17 13.75 16.6642 13.75 16.25C13.75 15.8358 14.0858 15.5 14.5 15.5H15.25C15.9404 15.5 16.5 14.9404 16.5 14.25V13.5C16.5 13.0858 16.8358 12.75 17.25 12.75ZM5.5 6C5.91421 6 6.25 6.33579 6.25 6.75V13.25C6.25 13.6642 5.91421 14 5.5 14C5.08579 14 4.75 13.6642 4.75 13.25V6.75C4.75 6.33579 5.08579 6 5.5 6ZM9.25 6.75C9.25 6.33579 8.91421 6 8.5 6C8.08579 6 7.75 6.33579 7.75 6.75V13.25C7.75 13.6642 8.08579 14 8.5 14C8.91421 14 9.25 13.6642 9.25 13.25V6.75ZM11.5 6C11.9142 6 12.25 6.33579 12.25 6.75V13.25C12.25 13.6642 11.9142 14 11.5 14C11.0858 14 10.75 13.6642 10.75 13.25V6.75C10.75 6.33579 11.0858 6 11.5 6ZM15.25 6.75C15.25 6.33579 14.9142 6 14.5 6C14.0858 6 13.75 6.33579 13.75 6.75V13.25C13.75 13.6642 14.0858 14 14.5 14C14.9142 14 15.25 13.6642 15.25 13.25V6.75Z" fill="#212121"/>
</svg>

<svg viewBox="0 0 20 20" fill="none" xmlns="http://www.w3.org/2000/svg" height="1em" width="1em">
  <path d="M2 5.75A2.75 2.75 0 0 1 4.75 3h.75a.75.75 0 0 1 0 1.5h-.75c-.69 0-1.25.56-1.25 1.25v.75a.75.75 0 0 1-1.5 0v-.75Zm11.75-2A.75.75 0 0 1 14.5 3h.75A2.75 2.75 0 0 1 18 5.75v.75a.75.75 0 0 1-1.5 0v-.75c0-.69-.56-1.25-1.25-1.25h-.75a.75.75 0 0 1-.75-.75Zm-11 9a.75.75 0 0 1 .75.75v.75c0 .69.56 1.25 1.25 1.25h.75a.75.75 0 0 1 0 1.5h-.75A2.75 2.75 0 0 1 2 14.25v-.75a.75.75 0 0 1 .75-.75Zm14.5 0a.75.75 0 0 1 .75.75v.75A2.75 2.75 0 0 1 15.25 17h-.75a.75.75 0 0 1 0-1.5h.75c.69 0 1.25-.56 1.25-1.25v-.75a.75.75 0 0 1 .75-.75ZM5.5 6a.75.75 0 0 1 .75.75v6.5a.75.75 0 0 1-1.5 0v-6.5A.75.75 0 0 1 5.5 6Zm3.75.75a.75.75 0 0 0-1.5 0v6.5a.75.75 0 0 0 1.5 0v-6.5ZM11.5 6a.75.75 0 0 1 .75.75v6.5a.75.75 0 0 1-1.5 0v-6.5A.75.75 0 0 1 11.5 6Zm3.75.75a.75.75 0 0 0-1.5 0v6.5a.75.75 0 0 0 1.5 0v-6.5Z" fill="#212121"/>
</svg>
